X:1
T:Carol of the Bells
T:Carol of the Bells
T:TBH, I have no clue
C:TBH, I have no clue
%%score 1 2 3 4
L:1/8
Q:1/4=135
M:3/4
K:Eb
V:1 treble nm="Flute" snm="Fl."
V:2 treble transpose=-2 nm="B♭ Trumpet" snm="B♭ Tpt."
V:3 treble transpose=-21 nm="Baritone Saxophone" snm="Bar. Sax."
V:4 bass nm="Bass Trombone" snm="B. Tbn."
V:1
 F6 | A6 | z2 (3A2 B2 d2 | c2 B2 !~(!G2 | !~)!c'2 bg e2 | c'2 bg e2 | c'2 bg d'2 | z6 | z6 | z6 | %10
 z6 | Tc'3 =b c'2 | z6 | Td'3 ^c' d'2 | z6 | Te'3 d' e'2 | f'2 e'2 d'2 | c'2 b2 g2 | z6 | %19
 c' c'2 =b c'2 | z6 | d' d'2 ^c' d'2 | z6 | e' e'2 d' e'2 | g'6 | z2 z2 !~(!g'2 | !~)!e2 de c2 | %27
 z6 | e2 de c2 | z6 | !~(!c!~)!c' z4 | !~(!c!~)!c' z4 | !~(!c!~)!d' c'2 b2 | e4 z2 | z6 | %35
 z2 z !~(!c !~)!d'c' | e2 z4 | z2 z !~(!c !~)!d'c' | e2 z4 | z6 | z6 | z6 |[Q:1/4=80] [c'c'']6 |] %43
V:2
[K:F] E6 | G6 | z2 (3B2 A2 F2 | B2 A2 F2 | B2 AF D2 | B2 AF D2 | B2 AF c2 | d2 c2 B2 | c2 B2 A2 | %9
 B2 A2 G2 | z6 | z6 | z6 | z6 | z6 | z6 | z6 | z6 | z6 | z6 | z6 | z6 | A2 GA F2 | A2 GA F2 | %24
 A2 GA F2 | A2 GA F2 | A2 GA F2 | A2 GA F2 | A2 GA F2 | A2 GA F2 | d2 dd cB | A2 AA GF | G2 GG AG | %33
 F2 EF D2 | A,B, CD EF | GA G2 F2 | A,B, CD EF | GA G2 F2 | F2 EF D2 | z6 | z6 | c2 Bc a2 | %42
 [dd']6 |] %43
V:3
[K:C] G6 | G6 | z6 | z6 | c2 z4 | c2 z4 | c2 z4 | c2 z4 | c2 z4 | c2 z4 | !turn!c2 Bc A2 | %11
 c2 Bc A2 | !turn!c2 Bc A2 | c2 Bc A2 | !turn!c2 Bc A2 | c2 Bc A2 | c2 Bc A2 | c2 Bc A2 | %18
 c2 Bc A2 | c2 Bc A2 | c2 Bc A2 | c2 Bc A2 | c2 Bc A2 | c2 Bc A2 | c2 Bc A2 | c2 Bc A2 | c2 Bc A2 | %27
 c2 Bc A2 | c2 Bc A2 | c2 Bc A2 | A4 z2 | E4 z2 | D2 z4 | c2 z4 | A6 | A4 B2 | A6 | A4 B2 | %38
 c2 Bc A2 | z6 | e2 de c2 | e2 de c2 | A6 |] %43
V:4
 G,,6 | A,,6 | A,,,6 | z6 | E,,2 z4 | E,,2 z4 | E,,2 z4 | E,,2 z4 | E,,2 z4 | E,,2 z4 | z6 | z6 | %12
 z6 | z6 | G,,6 | F,,6 | E,,6 | D,,4 F,,2 | G,,6 | B,,6 | C,6 | E,4 F,,2 | G,,6 | F,,6 | E,,6 | %25
 D,,4 F,,2 | G,,2 G,,2 G,,2 | =A,,6 | B,,2 B,,2 B,,2 | G,,6 | C,,4 z2 | G,,,4 z2 | [F,,,D,,]4 z2 | %33
 [E,,,E,,]4 z2 | [G,,,G,,]6 | [G,,,G,,]4 [A,,,A,,]2 | [G,,,G,,]6 | [G,,,G,,]4 [A,,,A,,]2 | %38
 E,,2 D,,E,, C,,2 | E,,2 D,,E,, C,,2 | E,,2 D,,E,, C,,2 | E,,2 D,,E,, C,,2 | C,,6 |] %43

